X:140
T:Basket of Turf, The
C:Joe Buchanan's Scottish Tome - Page 256.1
I:256 1
C:AKA Up Sligo
Z:Carl Allison
R:Jig
L:1/8
M:6/8
K:G
E | EBB BAG | FEF AGF | EBB Bcd | AF E2 E | DGB BAG | FDF AGF | GAB Bcd | AGF E2 :|
B | Bee efg | dcB AGF | Eee efg | f^df e2 e | Eee efg | dcB AGF | GAB Bcd | AGF E2 :|

